X:1
T: The Duchess of Gordon
C:
R:Strathspey
Q: 128
K:Gm
M:4/4
L:1/16
|:A2|GGG2 d4 d3c Ag3|GGG2 G4 A3G FA3|GGG2 d4 d3c dg3|fd3 c3A G4 G2A2|
GGG2 d4 d3c Ag3|GGG2 G4 A3G FA3|GGG2 d4 d3c dg3|fd3 c3A G4 G2^f2|
g3a b3a gd3 d3=e|f3g f3c AF3 F3^f|g3a b3a gd3 d3g|gd3 c3A G4 G2^f2|
g3a b3a gd3 d3=e|f3g f3c AF3 F3^f|g3a b3a g3f a3g|fd3 c3A G4 G2:|
